X:1
T:O God, the author of peace
T:O God, the author of peace (Joseph Key)
C:Joseph Key
Z:p19, Five Anthems, Four
Z:Collects ... Book III.
Z:London: [1785]
%%score [ 1 2 3 4 ]
L:1/8
M:3/4
K:D
V:1 treble nm="Soprano" snm="S."
V:2 treble nm="Alto" snm="A."
V:3 treble-8 transpose=-12 nm="Tenor" snm="T."
V:4 bass nm="Bass" snm="B."
V:1
"^Treble [and Bass]Slow" A2 | (d3 e) f2 | e2 d2 c2 | (c2 d2) A2 | B2 A2 G2 | (G2 F2) (A>B) | %6
w: O|God, _ the|au- thor of|peace, _ the|au- thor of|peace _ and _|
 A2 G2 (F>G) | F2 E2 (FG) | A2 (BA) (GF) | F2 E2 A2 | A2 B2 c2 | d2 cB Ad | (c2 B3) A | A4 || A2 | %15
w: lo- ver of _|con- cord, and _|lo- ver _ of _|con- cord, in|know- ledge of|whom stand- eth our e-|ter- * nal|life,|O|
 (d3 e) f2 | e2 d2 c2 | (c2 d2) f2 | e2 d2 c2 | (c2 d2) z2 | z6 | z4 (FG) | A2 (BA) (GF) | %23
w: God, _ the|au- thor of|peace, _ the|au- thor of|peace, _||and _|lo- ver _ of _|
 F2 E2 z2 | z6 | z6 | z6 | z6 | z6 | z6 | z4 A2 | (d3 e) f2 | e2 d2 c2 | (c2 d2) f2 | e2 d2 c2 | %35
w: con- cord,|||||||O|God, _ the|au- thor of|peace, _ the|au- thor of|
 (c2 d2) |:"^[Treble and Bass]" (F>B) | B2 ^A2 (Bc) | (d2 c3) B | B2 B2 A2 | (A2 ^G2) (A>c) | %41
w: peace, _|De- *|fend us, thy _|hum- * ble|ser- vants, in|all _ as- *|
 (Bc/d/) c2 B2 | A>A A2 || A2 | (d3 e) f2 | e2 d2 c2 | (c2 d2) f2 | e2 d2 c2 | (c2 d2) (F>G) | %49
w: saults _ _ of our|e- ne- mies,|O|God, _ the|au- thor of|peace, _ the|au- thor of|peace, _ That _|
 A4 G>F | G2 G2 (FG) | (A2 BA) (GF) | (F2 E2) EE | (F>G FE) D2 | A4 F2 | B>A (Bc) (d>e) | %56
w: we sure- ly|trust- ing in _|thy _ _ de- *|fence _ may not|fear _ _ _ the|pow’r of|a- ny ad- * ver- *|
 (dc) c2"^Loud" d>d | d6- | d2 z2 d>d | d6- | d2 z2 A>A | A6- | A4 d2 | (de dc) B2 | A4 A2 | A4 :| %66
w: sa- * ries, through the|might,|_ through the|might,|_ through the|might|_ of|Je- * * * sus|Christ our|Lord.|
[M:4/4] A8 | A8 | A8 | A8 |] %70
w: A-|men,|A-|men.|
V:2
 z2 | z6 | z6 | z6 | z6 | z6 | z6 | z6 | z6 | z6 | z6 | z6 | z6 | z4 || F2 | (F3 G) A2 | G2 F2 E2 | %17
w: ||||||||||||||O|God, _ the|au- thor of|
 (E2 F2) A2 | G2 F2 E2 | (E2 F2) z2 | z6 | z6 | z6 | z6 | z6 | z6 | z6 | z6 | z6 | z6 | z4 F2 | %31
w: peace, _ the|au- thor of|peace, _|||||||||||O|
 (F3 G) A2 | G2 F2 E2 | (E2 F2) A2 | G2 F2 E2 | (E2 F2) |: z2 | z6 | z6 | z6 | z6 | z6 | z4 || F2 | %44
w: God, _ the|au- thor of|peace, _ the|au- thor of|peace, _||||||||O|
 (F3 G) A2 | G2 F2 E2 | (E2 F2) A2 | G2 F2 E2 | (E2 F2) z2 | z6 | z6 | z6 | z6 | z6 | z6 | z6 | %56
w: God, _ the|au- thor of|peace, _ the|au- thor of|peace, _||||||||
 z4 F>F | F6- | F2 z2 G>G | G6- | G2 z2 E>E | F6- | F4 F2 | G4 G2 | F4 E2 | F4 :|[M:4/4] F8 | E8 | %68
w: Through the|might,|_ through the|might,|_ through the|might|_ of|Je- sus|Christ our|Lord.|A-|men,|
 E8 | F8 |] %70
w: A-|men.|
V:3
 z2 | z6 | z6 | z6 | z6 | z6 | z6 | z6 | z6 | z6 | z6 | z6 | z6 | z4 || A2 | A4 A2 | B2 A2 A2 | %17
w: ||||||||||||||O|God, the|au- thor of|
 A4 A2 | B2 A2 A2 | A4 (A>B) | A2 G2 (F>G) | F2 E2 z2 | z6 | z4 A2 | A2 B2 c2 | d2 cB Ad | %26
w: peace, the|au- thor of|peace and _|lo- ver of _|con- cord,||in|know- ledge of|whom stand- eth our e-|
 (c2 B3) A | A4 G2 | F2 E2 (DE/F/) | (G2 F2) E2 | D2 D2 A2 | A4 A2 | B2 A2 A2 | A4 A2 | B2 A2 A2 | %35
w: ter- * nal|life, whose|ser- vice is _ _|per- * fect|free- dom. O|God, the|au- thor of|peace, the|au- thor of|
 A4 |: z2 | z6 | z6 | z6 | z6 | z6 | z4 || A2 | A4 A2 | B2 A2 A2 | A4 A2 | B2 A2 A2 | A4 z2 | z6 | %50
w: peace,||||||||O|God, the|au- thor of|peace, the|au- thor of|peace||
 z6 | z6 | z6 | z6 | z6 | z6 | z4 A>A | A6- | A2 z2 B>B | B6- | B2 z2 c>c | d6- | d4 A2 | %63
w: ||||||Through the|might,|_ through the|might,|_ through the|might|_ of|
 (BA Bc) d2 | d4 c2 | d4 :|[M:4/4] d8 | c8 | c8 | d8 |] %70
w: Je- * * * sus|Christ our|Lord.|A-|men,|A-|men.|
V:4
 D,2 | (D,2 F,2) D,2 | G,2 A,2 A,,2 | D,4 F,2 | G,2 F,2 E,2 | D,4 F,2 | F,2 E,2 D,2 | %7
w: O|God, _ the|au- thor of|peace, the|au- thor of|peace and|lo- ver of|
 A,2 A,,2 (D,E,) | F,2 (G,F,) (E,D,) | A,2 A,,2 A,,2 | (D,C,) B,,2 A,,2 | D,2 A,,B,, C,D, | %12
w: con- cord, and _|lo- ver _ of _|con- cord, in|know- * ledge of|whom stand- eth our e-|
 E,4 [E,,E,]2 | A,,4 || D,2 | D,4 D,2 | G,2 A,2 A,,2 | D,4 D,2 | G,2 A,2 A,,2 | D,4 (F,>G,) | %20
w: ter- nal|life,|O|God, the|au- thor of|peace, the|au- thor of|peace and _|
 F,2 E,2 D,2 | A,2 A,,2 (D,E,) | F,2 (G,F,) (E,D,) | A,2 A,,2 A,,2 | (D,C,) B,,2 A,,2 | %25
w: lo- ver of|con- cord, and _|lo- ver _ of _|con- cord, in|know- * ledge of|
 D,2 A,,B,, C,D, | E,4 [E,,E,]2 | A,,4 (B,,C,) | D,2 A,,2 B,,2 | (G,,2 A,,2) A,,2 | %30
w: whom stand- eth our e-|ter- nal|life, whose _|ser- vice is|per- * fect|
 [D,,D,]2 [D,,D,]2 D,2 | D,4 D,2 | G,2 A,2 A,,2 | D,4 D,2 | G,2 A,2 A,,2 | D,4 |: (D,C,) | %37
w: free- dom. O|God, the|au- thor of|peace, the|au- thor of|peace,|De- *|
 B,,2 C,2 (D,E,) | F,4 [F,,F,]2 | B,,2 B,,2 D,2 | (C,2 B,,2) A,,2 | D,2 E,2 [E,,E,]2 | %42
w: fend us, thy _|hum- ble|ser- vants, in|all _ as-|saults of our|
 A,,>A,, A,,2 || D,2 | D,4 D,2 | G,2 A,2 A,,2 | D,4 D,2 | G,2 A,2 A,,2 | D,4 (D,>E,) | F,4 E,>D, | %50
w: e- ne- mies,|O|God, the|au- thor of|peace, the|au- thor of|peace That _|we sure- ly|
 E,2 E,2 (D,E,) | (F,2 G,F,) (E,D,) | A,,4 A,,A,, | (D,>E, D,C,) B,,2 | A,,4 D,2 | G,>F, E,2 D,2 | %56
w: trust- ing in _|thy _ _ de- *|fence may not|fear _ _ _ the|pow’r of|a- ny ad- ver-|
 A,2 A,,2 D,>D, | D,6- | D,2 z2 [G,,G,]>[G,,G,] | [G,,G,]6- | %60
w: sa- ries, through the|might,|_ through the|might,|
"^The alto part is printed in the treble clef an octave above sounding pitch in the source.The following notes are shown as small ornamental notes in the source, and have been expanded in the present edition:Bar 3, beat 1, treble C#; bar 5, beat 1, treble G; bar 16, beat 1, treble C# and alto E; bar 18, beat 1, treble C# and alto E;bar 32, beat 1, treble C# and alto E; bar 34, beat 1, treble C# and alto E; bar 43, beat 1, treble C# and alto E;bar 45, beat 1, treble C# and alto E; bar 49, beat 1, treble F#." [G,,G,]2 z2 [A,,A,]>[A,,A,] | %61
w: _ through the|
 D,6- | D,4 D,2 | G,4 G,2 | A,4 A,,2 | D,4 :|[M:4/4] D,8 | A,8 | A,,8 | D,8 |] %70
w: might|_ of|Je- sus|Christ our|Lord.|A-|men,|A-|men.|

